_includes/icons/color-file-2.svg

<svg fill="#666" height="50" viewBox="0 0 48 48" width="50" xmlns="http://www.w3.org/2000/svg"><path d="m40 45h-32v-42h22l10 10z" fill="#90caf9"/><path d="m38.5 14h-9.5v-9.5z" fill="#e1f5fe"/><g fill="#1976d2"><path d="m16 21h17v2h-17z"/><path d="m16 25h13v2h-13z"/><path d="m16 29h17v2h-17z"/><path d="m16 33h13v2h-13z"/></g></svg>

<svg xmlns="http://www.w3.org/2000/svg" viewBox="0 0 48 48" width="50" height="50" fill="#666"><path d="M 40 45 L 8 45 L 8 3 L 30 3 L 40 13 Z" fill="#90caf9"/><path d="M 38.5 14 L 29 14 L 29 4.5 Z" fill="#e1f5fe"/><path d="M 16 21 L 33 21 L 33 23 L 16 23 Z" fill="#1976d2"/><path d="M 16 25 L 29 25 L 29 27 L 16 27 Z" fill="#1976d2"/><path d="M 16 29 L 33 29 L 33 31 L 16 31 Z" fill="#1976d2"/><path d="M 16 33 L 29 33 L 29 35 L 16 35 Z" fill="#1976d2"/></svg>
